Yaru++/actions/16/curves.svg

<svg height="16" shape-rendering="crispEdges" width="16" xmlns="http://www.w3.org/2000/svg">
  <g fill="#808080" transform="translate(-31.97559 -220.36218)">
    <path d="m.03125 0v16h16v-16zm1 1h14v14h-14z" transform="translate(31.97559 220.36218)"/>
    <g fill-rule="evenodd">
      <path d="m3.0253906 1v2h-2l-.0019531.9941406.0039063.0117188h1.9980468v1.9941406h-1.9980468v1h1.9980468v2h-1.9980468v1h1.9980468v2h-1.9980468v1h1.9980468v2h1v-2h2v2h1v-2h2v2h1.0000004v-2h2v2h1v-2h2.001953v-1h-2.001953v-2h2.001953v-1h-2.001953v-2h2.001953v-1h-2.001953v-2h2v-1h-2v-2h-1v2h-2v-2h-1.0000004v2h-2v-2h-1v2h-2v-2zm7.0000004 3.0019531h2v1.9980469h-2zm-6.0000004.0019531h2v1.9960938h-2zm3 0h2v1.9960938h-2zm-3 2.9960938h2v2h-2zm3 0h2v2h-2zm3.0000004 0h2v2h-2zm-6.0000004 3h2v2h-2zm3 0h2v2h-2zm3.0000004 0h2v2h-2z" opacity=".1" transform="translate(31.97559 220.36218)"/>
      <path d="m45.982422 221.85547a.50005.50005 0 0 0 -.47461.41992c-.670445 3.76092-2.151193 6.28601-4.164062 8.07227s-4.58527 2.83704-7.460938 3.52929a.50005.50005 0 1 0 .234376.97071c2.967072-.71426 5.707261-1.8144 7.890624-3.75196 2.183364-1.93756 3.78249-4.7092 4.484376-8.64648a.50005.50005 0 0 0 -.509766-.59375z"/>
    </g>
  </g>
</svg>

<svg xmlns="http://www.w3.org/2000/svg" width="16" height="16" shape-rendering="crispEdges" version="1.1">
 <g transform="translate(-31.97559,-220.36218)">
  <path fill="#808080" d="M 0.03125 0 L 0.03125 16 L 16.03125 16 L 16.03125 0 L 0.03125 0 z M 1.03125 1 L 15.03125 1 L 15.03125 15 L 1.03125 15 L 1.03125 1 z" transform="translate(31.97559,220.36218)"/>
  <path fill="#808080" fill-rule="evenodd" opacity=".1" d="M 3.0253906 1 L 3.0253906 3 L 1.0253906 3 L 1.0234375 3.9941406 L 1.0273438 4.0058594 L 3.0253906 4.0058594 L 3.0253906 6 L 1.0273438 6 L 1.0273438 7 L 3.0253906 7 L 3.0253906 9 L 1.0273438 9 L 1.0273438 10 L 3.0253906 10 L 3.0253906 12 L 1.0273438 12 L 1.0273438 13 L 3.0253906 13 L 3.0253906 15 L 4.0253906 15 L 4.0253906 13 L 6.0253906 13 L 6.0253906 15 L 7.0253906 15 L 7.0253906 13 L 9.0253906 13 L 9.0253906 15 L 10.025391 15 L 10.025391 13 L 12.025391 13 L 12.025391 15 L 13.025391 15 L 13.025391 13 L 15.027344 13 L 15.027344 12 L 13.025391 12 L 13.025391 10 L 15.027344 10 L 15.027344 9 L 13.025391 9 L 13.025391 7 L 15.027344 7 L 15.027344 6 L 13.025391 6 L 13.025391 4 L 15.025391 4 L 15.025391 3 L 13.025391 3 L 13.025391 1 L 12.025391 1 L 12.025391 3 L 10.025391 3 L 10.025391 1 L 9.0253906 1 L 9.0253906 3 L 7.0253906 3 L 7.0253906 1 L 6.0253906 1 L 6.0253906 3 L 4.0253906 3 L 4.0253906 1 L 3.0253906 1 z M 10.025391 4.0019531 L 12.025391 4.0019531 L 12.025391 6 L 10.025391 6 L 10.025391 4.0019531 z M 4.0253906 4.0039062 L 6.0253906 4.0039062 L 6.0253906 6 L 4.0253906 6 L 4.0253906 4.0039062 z M 7.0253906 4.0039062 L 9.0253906 4.0039062 L 9.0253906 6 L 7.0253906 6 L 7.0253906 4.0039062 z M 4.0253906 7 L 6.0253906 7 L 6.0253906 9 L 4.0253906 9 L 4.0253906 7 z M 7.0253906 7 L 9.0253906 7 L 9.0253906 9 L 7.0253906 9 L 7.0253906 7 z M 10.025391 7 L 12.025391 7 L 12.025391 9 L 10.025391 9 L 10.025391 7 z M 4.0253906 10 L 6.0253906 10 L 6.0253906 12 L 4.0253906 12 L 4.0253906 10 z M 7.0253906 10 L 9.0253906 10 L 9.0253906 12 L 7.0253906 12 L 7.0253906 10 z M 10.025391 10 L 12.025391 10 L 12.025391 12 L 10.025391 12 L 10.025391 10 z" transform="translate(31.97559,220.36218)"/>
  <path fill="#808080" fill-rule="evenodd" d="m 45.982422,221.85547 a 0.50005,0.50005 0 0 0 -0.47461,0.41992 c -0.670445,3.76092 -2.151193,6.28601 -4.164062,8.07227 -2.012869,1.78626 -4.58527,2.83704 -7.460938,3.52929 a 0.50005,0.50005 0 1 0 0.234376,0.97071 c 2.967072,-0.71426 5.707261,-1.8144 7.890624,-3.75196 2.183364,-1.93756 3.78249,-4.7092 4.484376,-8.64648 a 0.50005,0.50005 0 0 0 -0.509766,-0.59375 z"/>
 </g>
</svg>
